X:22
T:The Pretty Girl
S:John Moores Book 2
Z:Transcribed by John Gibbons 8th  May 2021
F:http://www.vwml.org/record/Moore2/4494/p19
K:D
M:C|
L:1/8
dAFD dAFD |dAFD  E2 E2 | dAFD EFGB |AGFE D2 D2 :||
fdfa .g.e.c.A | fdfa g2 g2 | fdfa gbeg | fedc d2 d2 :|| 
